X:598
T: ES KAM EIN HERR ZUM SCHLOESSLI
N: E1916
O: Europa, Mitteleuropa, Schweiz
R: Kinder - Lied, Moral
M: 2/4
L: 1/16
K: G
G2 | dedcBcBA | G2B2D2
G2 | dedcBcBA | G2B2D2
D2 | G2G2A2A2 | BdcBA2
d2 | B2G2A2F2 | GBAFG2

@@@ Tune index: 5282
